X: 4120
T: Blowing Bubbles
R: reel
M: 4/4
K: Dmajor
A~d3 AdcA|G~B3 GABG|A~d3 AdcA|GABG A2FG|
A~d3 AdcA|G~B3 GABG|FGAB defd|1 edce ~d2FG:|2 edce ~d2de||
|:f~d3 gdfd|edBd AdBd|f~d3 gdfd|edBd A2de|
f~d3 gdad|bagf edcA|GBAG FAdA|GFEF D2de:|

